X:1
T: Andy Fisher loves this Strathspey
C:Bruce Shawyer
R:Jig
Q:180
K:Em
M:6/8
L:1/16
|:G4A2 B2G2E2|F4G2 A2F2D2|G4A2 B2G2E2|A2G2F2 E6|
G4A2 B2G2E2|F4G2 A2F2D2|G4A2 B2G2E2|A2G2F2 E6|
e4f2 g4a2|b2g2e2 a2f2d2|e4f2 g4a2|b2g2e2 d2c2B2|
e4f2 g4a2|b2g2e2 a2f2d2|e4f2 d2c2B2|A2G2F2 E6:|
